resources/svg/safari-o.svg

<svg xmlns="http://www.w3.org/2000/svg" viewBox="0 0 15 15" fill="none"><path d="M3.5 11.5L3.07125 11.2428C2.95321 11.4395 2.98421 11.6913 3.14645 11.8536C3.30868 12.0158 3.56051 12.0468 3.75725 11.9287L3.5 11.5ZM6.5 6.5L6.24275 6.07125L6.13557 6.13557L6.07125 6.24275L6.5 6.5ZM11.5 3.5L11.9287 3.75725C12.0468 3.56051 12.0158 3.30868 11.8536 3.14645C11.6913 2.98421 11.4395 2.95321 11.2428 3.07125L11.5 3.5ZM8.5 8.5L8.75725 8.92875L8.86443 8.86443L8.92875 8.75725L8.5 8.5ZM14 7.5C14 11.0903 11.0903 14 7.5 14V15C11.6426 15 15 11.6426 15 7.5H14ZM7.5 14C3.90971 14 1 11.0903 1 7.5H0C0 11.6426 3.35742 15 7.5 15V14ZM1 7.5C1 3.90971 3.90971 1 7.5 1V0C3.35742 0 0 3.35742 0 7.5H1ZM7.5 1C11.0903 1 14 3.90971 14 7.5H15C15 3.35742 11.6426 0 7.5 0V1ZM3.92875 11.7572L6.92875 6.75725L6.07125 6.24275L3.07125 11.2428L3.92875 11.7572ZM6.75725 6.92875L11.7572 3.92875L11.2428 3.07125L6.24275 6.07125L6.75725 6.92875ZM11.0713 3.24275L8.07125 8.24275L8.92875 8.75725L11.9287 3.75725L11.0713 3.24275ZM8.24275 8.07125L3.24275 11.0713L3.75725 11.9287L8.75725 8.92875L8.24275 8.07125Z" fill="black"/></svg>

<svg xmlns="http://www.w3.org/2000/svg" viewBox="0 0 15 15" fill="none"><path d="M3.5 11.5l-.429-.257a.5.5 0 00.686.686L3.5 11.5zm3-5l-.257-.429-.107.065-.065.107.429.257zm5-3l.429.257a.5.5 0 00-.686-.686l.257.429zm-3 5l.257.429.107-.065.065-.107L8.5 8.5zm5.5-1A6.5 6.5 0 017.5 14v1A7.5 7.5 0 0015 7.5h-1zM7.5 14A6.5 6.5 0 011 7.5H0A7.5 7.5 0 007.5 15v-1zM1 7.5A6.5 6.5 0 017.5 1V0A7.5 7.5 0 000 7.5h1zM7.5 1A6.5 6.5 0 0114 7.5h1A7.5 7.5 0 007.5 0v1zM3.929 11.757l3-5-.858-.514-3 5 .858.514zM6.757 6.93l5-3-.514-.858-5 3 .514.858zm4.314-3.686l-3 5 .858.514 3-5-.858-.514zM8.243 8.07l-5 3 .514.858 5-3-.514-.858z" fill="currentColor"/></svg>
